X: 567
T:Ben Hill
M:4/4
L:1/8
C:Father Kelly
S:from Mike Rafferty
R:Reel
N:Posted to the woodenflute mailing list, August 2002
Z:Tom Madden
K:G
B|:d3B cAFA|G2 BG DGBG|AzAB cBAG|EAAG ABce|
d2dB cAFA|G2 BG DGBG|AzAB cdef|gdcA   BG G2:|
dgga gdBd|eaab ageg |fd ad bzaf|gage dcBc|
dgga gdBd|eaab agef  |~g3e d2 Bc|dBcA BG G2:|

